X:6
%%etbk:tnset id:3,pos:1,rep:3x,ant:
%%etbk:wsite http://www.thesession.org/tunes/display/132
%%etbk:pldat 2016-07-09T13:41,2016-03-30T18:05,2016-03-14T18:08,2015-10-13T18:00,2015-07-17T10:30,2015-03-06T17:03,2015-03-04T17:47,2015-01-20T16:05,2014-12-30T17:25,2014-12-20T14:10,2014-12-14T15:07,2014-12-13T15:55,2014-12-09T17:03,2014-12-08T18:22,2014-12-07T10:42,2014-09-25T17:43,2014-05-14T15:48,2014-05-11T12:36,2014-05-07T17:55,2014-03-12T18:27,2014-02-15T17:19,2014-02-04T17:55,2013-11-27T18:46,2013-11-18T17:57,2013-11-06T16:27,2013-10-05T14:57,2013-09-01T15:23,2013-08-28T15:31,2013-05-02T18:48,2013-05-01T16:56
T: Eileen Curran
Z: Piano Box Version by Martin Fleischmann
H: Created 2013-02-19 /  Last Modified 2013-03-28
H:
M: 4/4
L: 1/8
R: Reel
K: Gdor
|:!3!B!2!A!1!G!2!F !1!D!3!G!1!G!3!B|!2!A!1!F!4!cF !5!dFcF|!3!B!2!A!1!G!2!F !1!D!2!F!1!G!2!A|!3!B!2!A!3!B!4!c !1!d!3!g!3!g!4!a|
|!5!b!3!gag !3!g!2!f!1!d!3!e|!4!f!2!d!1!c!3!B !2!A!1!FFA |BAGF DFGA|1 (3Bcd cA BGGA:|2 (3Bcd cA BGG2|
|:!3!g2 g^f gbag|!2!=f2 fe fgaf|!3!g2 g^f ~g3 a|bga=f dgga|
|bgag gfde|fdcB AFFA|BAGF DFGA|1 (3Bcd cA BGG2:|2 BdcA BGG2|


